X: 33
T: No_134.krn
N: Derived from No_134.krn
%%abc-version 2.0
%%abcx-abcm2ps-target-version 5.9.1 (29 Sep 2008)
%%abc-creator hum2abc beta
%%abcx-conversion-date 2019/03/15 08:29:13
%%humdrum-veritas 2900228178
%%humdrum-veritas-data 529415100
%%linebreak <none>
%%barnumbers 0
L: 1/8
M: 3/8
K: F clef=treble
A, [I:setbarnb 1]| 
C2C | 
C2C | 
c2B | 
G/F3/B | 
B2=B | 
c2G | 
BGF | 
D2C | 
B,3//G,//G,2- | 
G,2G, | 
B,2C | 
DFG | 
!fermata!B3 | 
G2F | 
D3/C/C | 
C3 | 
C2C | 
C2C | 
c2B | 
G//F3//F2- | 
F2B | 
c2G | 
BGF | 
D2C | 
B,3//G,//G,2- | 
G,2G, | 
B,2C | 
DFG | 
(3F/G/F/ DC | 
C3 |]  



